file/fs2.svg

<svg clip-rule="evenodd" fill-rule="evenodd" stroke-linejoin="round" stroke-miterlimit="1.41421" viewBox="0 0 560 400" xmlns="http://www.w3.org/2000/svg"><g transform="matrix(1.86935 0 0 1.86935 100.998 110.266)"><path d="m-.534.012h192.58v95.982h-192.58z" fill="#183059"/><g fill="#fff" fill-rule="nonzero"><path d="m37.297 80.937v-22.011l-3.016-3.335h24.848v-13.914h-21.832v-11.519h22.499l13.342-13.936h-56.977v64.715z"/><path d="m111.894 80.857h-45.549v-2.653l11.161-11.207h20.206l1.917-1.908v-8.065l-1.555-1.562-21.708-.037-7.742-7.665v-17.148l14.327-14.351h37.337v8.828l-4.993 5.087h-23.987l-1.628 1.925v8.102l1.484 1.489h21.816l7.706 8.102v22.307z"/><path d="m176.849 80.967h-46.788v-29.559l7.263-7.432h20.607l1.858-2.027v-11.824l-1.52-1.182h-9.459l-1.351 1.351v5.912h-17.229v-10.979l8.783-9.122h29.053l8.783 9.459v24.324l-7.094 7.263h-26.688l4.898 4.56v5.236h29.053z"/><g transform="matrix(.551662 0 0 .551662 80.3019 39.2066)"><path d="m181.469 75.393v-6.314h-2.359v-.844h5.674v.844h-2.368v6.314z"/><path d="m185.731 75.393v-7.158h1.426l1.694 5.068c.157.472.271.825.342 1.06.082-.261.209-.643.381-1.148l1.714-4.98h1.274v7.158h-.913v-5.991l-2.08 5.991h-.854l-2.071-6.094v6.094z"/></g></g></g></svg>

<?xml version="1.0" encoding="UTF-8" standalone="no"?>
<!DOCTYPE svg PUBLIC "-//W3C//DTD SVG 1.1//EN" "http://www.w3.org/Graphics/SVG/1.1/DTD/svg11.dtd">
<svg width="100%" height="100%" viewBox="0 0 560 400" version="1.1" xmlns="http://www.w3.org/2000/svg" xmlns:xlink="http://www.w3.org/1999/xlink" xml:space="preserve" xmlns:serif="http://www.serif.com/" style="fill-rule:evenodd;clip-rule:evenodd;stroke-linejoin:round;stroke-miterlimit:1.41421;">
    <g transform="matrix(1.86935,0,0,1.86935,100.998,110.266)">
        <rect id="rect3540" x="-0.534" y="0.012" width="192.58" height="95.982" style="fill:rgb(24,48,89);"/>
        <path id="path3543" d="M37.297,80.937L37.297,58.926L34.281,55.591L59.129,55.591L59.129,41.677L37.297,41.677L37.297,30.158L59.796,30.158L73.138,16.222L16.161,16.222L16.161,80.937L37.297,80.937Z" style="fill:white;fill-rule:nonzero;"/>
        <path id="path3545" d="M111.894,80.857L66.345,80.857L66.345,78.204L77.506,66.997L97.712,66.997L99.629,65.089L99.629,57.024L98.074,55.462L76.366,55.425L68.624,47.76L68.624,30.612L82.951,16.261L120.288,16.261L120.288,25.089L115.295,30.176L91.308,30.176L89.68,32.101L89.68,40.203L91.164,41.692L112.98,41.692L120.686,49.794L120.686,72.101L111.894,80.857Z" style="fill:white;fill-rule:nonzero;"/>
        <path id="path3020" d="M176.849,80.967L130.061,80.967L130.061,51.408L137.324,43.976L157.931,43.976L159.789,41.949L159.789,30.125L158.269,28.943L148.81,28.943L147.459,30.294L147.459,36.206L130.23,36.206L130.23,25.227L139.013,16.105L168.066,16.105L176.849,25.564L176.849,49.888L169.755,57.151L143.067,57.151L147.965,61.711L147.965,66.947L177.018,66.947L176.849,80.967Z" style="fill:white;fill-rule:nonzero;"/>
        <g id="text3022" transform="matrix(0.551662,0,0,0.551662,80.3019,39.2066)">
            <path id="path3027" d="M181.469,75.393L181.469,69.079L179.11,69.079L179.11,68.235L184.784,68.235L184.784,69.079L182.416,69.079L182.416,75.393L181.469,75.393Z" style="fill:white;fill-rule:nonzero;"/>
            <path id="path3029" d="M185.731,75.393L185.731,68.235L187.157,68.235L188.851,73.303C189.008,73.775 189.122,74.128 189.193,74.363C189.275,74.102 189.402,73.72 189.574,73.215L191.288,68.235L192.562,68.235L192.562,75.393L191.649,75.393L191.649,69.402L189.569,75.393L188.715,75.393L186.644,69.299L186.644,75.393L185.731,75.393Z" style="fill:white;fill-rule:nonzero;"/>
        </g>
    </g>
</svg>
